packages/merlin-www-assets/imports/gq/icons/gallery-zoom-close.svg

<svg viewBox="0 0 16 16" xmlns="http://www.w3.org/2000/svg"><path d="m15.28 16-7.28-7.29-7.28 7.29-.72-.72 7.29-7.28-7.29-7.28.72-.72 7.28 7.29 7.28-7.29.72.72-7.29 7.28 7.29 7.28z"/></svg>

<svg id="gallery-zoom-close" xmlns="http://www.w3.org/2000/svg" viewBox="0 0 16 16"><title>gallery-zoom-close</title><path d="M15.28,16L8,8.71,0.72,16,0,15.28,7.29,8,0,0.72,0.72,0,8,7.29,15.28,0,16,0.72,8.71,8,16,15.28Z"/></svg>
